X:165
T: Haymaker
S: J. O'Brien: "Irish Folk Dance Music"
Z: B.Black
M: 4/4
L: 1/8
R: reel
K: Ador
Bd | eAAB AGEF | G2 AF GFDB | cBcd efed |\
(3Bcd ef gfed |
eAAB AGEF | GBAF GFDB | cBcd efed | cABG A2 :|
Bd | eaab agef | g2 af gfdB | cBcd efed |\
(3Bcd ef gfed |
eaab agef | gbaf gfdB | cBcd efed | cABG A2 :|
